packages/styles/assets/img/pv-images/redeem/no_logs.svg

<svg xmlns="http://www.w3.org/2000/svg" viewBox="0 0 47 47.1" enable-background="new 0 0 47 47.1"><style type="text/css">.st0{fill:#6F6F6F;}</style><path class="st0" d="M40.2 7l-.2-.1c-4.5-4.6-10-6.9-16.5-6.9s-12 2.3-16.6 6.9c-4.6 4.6-6.9 10.2-6.9 16.6 0 6.5 2.3 12 6.8 16.5l.1.1c4.6 4.6 10.1 6.8 16.6 6.8 6.5 0 12-2.3 16.6-6.9 4.6-4.4 6.9-10 6.9-16.5 0-6.4-2.3-11.9-6.8-16.5m-16.7-.6c3.6 0 6.9 1 9.7 3l-23.9 23.9c-2-2.8-3-6.1-3-9.7 0-4.7 1.7-8.8 5-12.1 3.4-3.4 7.5-5.1 12.2-5.1m12.1 29.3c-3.3 3.4-7.4 5-12.1 5-3.6 0-6.9-1-9.7-3l23.9-23.9c2 2.8 3 6 3 9.7 0 4.8-1.7 8.8-5.1 12.2z" id="a"/></svg>

<?xml version="1.0" encoding="utf-8"?>
<!-- Generator: Adobe Illustrator 22.1.0, SVG Export Plug-In . SVG Version: 6.00 Build 0)  -->
<svg version="1.1" id="Layer_1" xmlns="http://www.w3.org/2000/svg" xmlns:xlink="http://www.w3.org/1999/xlink" x="0px" y="0px"
	 viewBox="0 0 47 47.1" style="enable-background:new 0 0 47 47.1;" xml:space="preserve">
<style type="text/css">
	.st0{fill:#6F6F6F;}
</style>
<g transform="matrix( 1, 0, 0, 1, 0,0) ">
	<g>
		<g id="a">
			<path class="st0" d="M40.2,7L40,6.9C35.5,2.3,30,0,23.5,0c-6.5,0-12,2.3-16.6,6.9l0,0C2.3,11.5,0,17.1,0,23.5
				c0,6.5,2.3,12,6.8,16.5l0.1,0.1c4.6,4.6,10.1,6.8,16.6,6.8c6.5,0,12-2.3,16.6-6.9l0,0C44.7,35.6,47,30,47,23.5
				C47,17.1,44.7,11.6,40.2,7 M23.5,6.4c3.6,0,6.9,1,9.7,3L9.3,33.3c-2-2.8-3-6.1-3-9.7c0-4.7,1.7-8.8,5-12.1l0,0
				C14.7,8.1,18.8,6.4,23.5,6.4 M35.6,35.7L35.6,35.7c-3.3,3.4-7.4,5-12.1,5c-3.6,0-6.9-1-9.7-3l23.9-23.9c2,2.8,3,6,3,9.7
				C40.7,28.3,39,32.3,35.6,35.7z"/>
		</g>
	</g>
</g>
</svg>
